X: 24270
T: Los Pol.los
R: polka
M: 2/4
K: Gmajor
A|:GF GB|B2 BA|GF GB|B3 A|
GF GA|B2 BA|GF GA|1 G3 A:|2 G4||
|:G3 B|dd dd|d2 d2|e3 e|
fe dc|A2 B2|d3 d|ed cB|
G2 A2|c3 c|dc BA|1 G3 d:|2 G3 G||
|:BB/A/ Bc|B G2 c|cB/A/ Bc|c B3|
G3/2A/ Bc|BG AB|AF GA|1 A G2 G:|2 A G3-|G3||

